libs/ui/packages/crypto-icons/src/svg/OOT.svg

<svg width="24" height="24" viewBox="0 0 24 24" fill="none">
<path fill-rule="evenodd" clip-rule="evenodd" d="M12.2599 18.7446C11.0299 18.7581 9.99714 18.5361 9.02364 18.0524C8.96364 18.0224 8.91864 18.0209 8.85864 18.0546C8.26735 18.3888 7.61819 18.6081 6.94539 18.7011C6.65739 18.7386 6.36639 18.7791 6.07689 18.7199C5.89862 18.6849 5.73287 18.6031 5.59661 18.4829C5.46035 18.3628 5.3585 18.2086 5.30148 18.0361C5.24447 17.8636 5.23435 17.679 5.27216 17.5013C5.30996 17.3236 5.39434 17.1592 5.51664 17.0249C5.86032 16.6345 6.11837 16.1764 6.27414 15.6801C6.2833 15.6554 6.28624 15.6287 6.28271 15.6026C6.27918 15.5764 6.26928 15.5515 6.25389 15.5301C5.72296 14.6873 5.39509 13.7327 5.29614 12.7416C5.07564 10.5501 5.75739 8.67286 7.32864 7.13386C8.3175 6.15436 9.59719 5.52175 10.9759 5.33086C12.8786 5.05261 14.6126 5.49211 16.1359 6.67186C17.4949 7.72486 18.3409 9.11161 18.6356 10.8051C19.0091 12.9486 18.4684 14.8581 17.0306 16.4901C15.9679 17.6961 14.6179 18.4124 13.0294 18.6666C12.7279 18.7154 12.4219 18.7289 12.2599 18.7446ZM7.43739 16.9536C7.48614 16.9401 7.51464 16.9326 7.54239 16.9236C7.96896 16.7795 8.37184 16.573 8.73789 16.3109C9.00189 16.1249 9.26214 16.1159 9.54039 16.2749C10.1374 16.6169 10.7771 16.8299 11.4634 16.9026C12.5786 17.0219 13.6309 16.8096 14.5721 16.2051C16.1996 15.1611 17.0096 13.6581 16.9219 11.7119C16.8656 10.4654 16.3774 9.38911 15.4931 8.51236C14.4274 7.45636 13.1306 6.97486 11.6284 7.07836C10.6159 7.14886 9.70089 7.49686 8.92164 8.14711C7.41189 9.40711 6.82914 11.0226 7.16364 12.9599C7.27314 13.5974 7.52739 14.1824 7.88589 14.7224C7.9543 14.8189 8.00116 14.929 8.02329 15.0452C8.04542 15.1614 8.0423 15.281 8.01414 15.3959C7.9284 15.7688 7.80788 16.1329 7.65414 16.4834C7.58739 16.6356 7.51539 16.7849 7.43814 16.9536H7.43739ZM12.0056 9.14461L12.4331 10.0124C12.5831 10.3199 12.7376 10.6274 12.8831 10.9379C12.9206 11.0189 12.9709 11.0474 13.0549 11.0586C13.6849 11.1464 14.3141 11.2386 14.9434 11.3294C14.9651 11.3331 14.9869 11.3391 15.0139 11.3444C14.8976 11.4644 14.7896 11.5814 14.6764 11.6916C14.3209 12.0389 13.9646 12.3846 13.6061 12.7281C13.5439 12.7881 13.5191 12.8444 13.5356 12.9366C13.6481 13.5689 13.7531 14.2026 13.8596 14.8364C13.8619 14.8521 13.8619 14.8686 13.8641 14.8994C13.8296 14.8859 13.8034 14.8776 13.7794 14.8649C13.2229 14.5716 12.6656 14.2791 12.1114 13.9814C12.0364 13.9409 11.9779 13.9371 11.8999 13.9791C11.3419 14.2769 10.7816 14.5701 10.2214 14.8641C10.1989 14.8769 10.1749 14.8866 10.1314 14.9076C10.1591 14.7374 10.1831 14.5851 10.2094 14.4336C10.2979 13.9221 10.3856 13.4099 10.4794 12.8991C10.4929 12.8241 10.4509 12.7889 10.4089 12.7476C9.96232 12.3087 9.51482 11.8707 9.06639 11.4336C9.04089 11.4081 9.00489 11.3939 8.97339 11.3744L8.99664 11.3384L9.68364 11.2394C10.1156 11.1779 10.5469 11.1149 10.9796 11.0556C11.0486 11.0459 11.0801 11.0091 11.1086 10.9506C11.3914 10.3739 11.6771 9.79861 11.9614 9.22261C11.9719 9.20236 11.9839 9.18361 12.0064 9.14461H12.0056Z" fill="#25AAE1"/>
</svg>

<svg width="24" height="24" viewBox="0 0 24 24" fill="none"><path fill="#25aae1" fill-rule="evenodd" d="M12.26 18.745c-1.23.013-2.263-.209-3.236-.693-.06-.03-.105-.031-.165.003a5.4 5.4 0 0 1-1.914.646c-.288.038-.579.078-.868.019a1.024 1.024 0 0 1-.56-1.695c.343-.39.601-.849.757-1.345a.16.16 0 0 0-.02-.15 6.4 6.4 0 0 1-.958-2.788c-.22-2.192.461-4.07 2.033-5.608a6.44 6.44 0 0 1 3.647-1.803c1.903-.278 3.637.161 5.16 1.34 1.359 1.054 2.205 2.44 2.5 4.134.373 2.144-.168 4.053-1.605 5.685-1.063 1.206-2.413 1.922-4.002 2.177-.301.048-.607.062-.77.078m-4.823-1.791c.05-.014.078-.021.105-.03a4.6 4.6 0 0 0 1.196-.613c.264-.186.524-.195.802-.036a4.9 4.9 0 0 0 1.923.628c1.116.119 2.168-.093 3.11-.698 1.627-1.044 2.437-2.547 2.349-4.493-.056-1.247-.545-2.323-1.429-3.2-1.066-1.056-2.362-1.537-3.865-1.434-1.012.07-1.927.419-2.706 1.07-1.51 1.26-2.093 2.875-1.758 4.812.11.637.363 1.222.722 1.762a.83.83 0 0 1 .128.674 6 6 0 0 1-.36 1.087c-.067.153-.139.302-.216.47m4.569-7.81.427.868c.15.308.305.615.45.926.038.08.088.11.172.12q.945.133 1.888.271l.07.015c-.115.12-.223.237-.337.348q-.532.521-1.07 1.036c-.062.06-.087.116-.07.209.112.632.217 1.266.324 1.9.002.015.002.032.004.062-.034-.013-.06-.021-.085-.034q-.835-.438-1.668-.884c-.075-.04-.133-.044-.211-.002q-.837.445-1.679.885c-.022.013-.046.023-.09.044.028-.17.052-.323.078-.474q.132-.768.27-1.535c.014-.075-.028-.11-.07-.151q-.67-.66-1.343-1.314c-.025-.026-.061-.04-.093-.06l.024-.036.687-.099q.647-.093 1.296-.183c.069-.01.1-.047.129-.105q.424-.865.852-1.728c.01-.02.023-.04.045-.078" clip-rule="evenodd"/></svg>
